X: 33
T: West's Hornpipe
N: Also called Fisher's Hornpipe.
%R: hornpipe, reel
B: Stewart "A Select Collection of Airs, Jigs, Marches and Reels", ca.1784, p.16 #33
F: http://imslp.org/wiki/A_Select_Collection_of_Airs,_Jigs,_Marches_and_Reels_%28Various%29
Z: 2017 John Chambers <jc:trillian.mit.edu>
M: C|
L: 1/8
K: G
|:\
gdBd cedc | BdBd cedc |\
BGBG cAcA | BGBG .A(FTED) |\
gdBd cedc |
BdBd cedc |\
Bgec' (ba).g.f | g2g2 g2z2 ::\
afdf afc'a | bgdg bgd'b |
afdf afc'a | (bg).f.e d4 |\
ecGc ecge | dBGB dBgd |\
ecge (dc).B.A  | G2G2 G2z2 :|

%%sep 1 1 500
%%sep 1 1 500

